images/features/3.svg

<svg width="70" height="70" viewBox="0 0 70 70" fill="none" xmlns="http://www.w3.org/2000/svg">
<path opacity="0.86" d="M40.5696 47.3466C40.5921 47.3831 40.6053 47.4226 40.6115 47.4653C40.6178 47.5072 40.6146 47.5491 40.6038 47.5902C40.5921 47.6313 40.5735 47.6693 40.5471 47.7027C40.5207 47.7361 40.4888 47.7632 40.4516 47.7842C37.4375 49.495 34.2891 50.9078 31.0071 52.0227C32.5401 53.7397 31.9639 61.9592 31.4754 66.7183C31.4715 66.7571 31.4614 66.7936 31.4435 66.8285C31.4257 66.8634 31.4024 66.8936 31.3736 66.92C31.3449 66.9456 31.3123 66.9658 31.2758 66.9798C31.2393 66.9937 31.2012 67.0007 31.1624 66.9999H31.1321C31.0886 66.9968 31.0482 66.9852 31.0102 66.965C30.9721 66.9449 30.9387 66.9177 30.9115 66.8843C30.8844 66.851 30.8649 66.8137 30.8533 66.7726C30.8409 66.7307 30.8378 66.6888 30.8424 66.6461C32.1805 53.5868 30.5582 52.4293 30.444 52.3571C30.371 52.3478 30.3089 52.316 30.2584 52.2632C28.4543 52.8676 26.616 53.3386 24.7444 53.6761C24.2815 53.7769 23.814 53.8281 23.3403 53.8297C21.7901 53.8297 20.3976 53.2587 19.5962 52.233C18.8428 51.2701 18.2534 49.5097 19.6334 46.5459C19.0882 46.1091 17.8488 44.8165 18.8211 42.7977C18.8475 42.7434 18.8863 42.7 18.9376 42.6681C18.9888 42.6356 19.0448 42.62 19.1053 42.62H24.3172C24.3568 42.6239 24.3941 42.634 24.4298 42.6511C24.4648 42.6689 24.4966 42.6922 24.523 42.7209C24.5494 42.7496 24.5704 42.783 24.5844 42.8194C24.5992 42.8567 24.6061 42.8947 24.6061 42.9343C24.6061 42.9738 24.5992 43.0119 24.5844 43.0483C24.5704 43.0856 24.5494 43.1181 24.523 43.1476C24.4966 43.1763 24.4648 43.1996 24.4298 43.2167C24.3941 43.2345 24.3568 43.2446 24.3172 43.2477H19.3158C19.2568 43.3742 19.2094 43.5053 19.1745 43.6403C19.1395 43.7761 19.1162 43.9126 19.1061 44.0523C19.096 44.1919 19.0983 44.3308 19.1139 44.4697C19.1286 44.6086 19.1566 44.7444 19.1962 44.8786C19.2366 45.012 19.2886 45.1416 19.3515 45.2657C19.4152 45.3899 19.4898 45.5078 19.5744 45.6187C19.6598 45.7297 19.7538 45.8321 19.8579 45.926C19.9612 46.0191 20.073 46.1029 20.1918 46.1766C20.2252 46.1968 20.2547 46.2224 20.2788 46.2542C20.3029 46.2852 20.3207 46.3194 20.3316 46.3574C20.3425 46.3954 20.3464 46.4342 20.3433 46.4737C20.3402 46.5125 20.3293 46.5498 20.3122 46.5855C19.2172 48.8099 19.1426 50.6277 20.0932 51.8349C20.9848 52.9739 22.7671 53.4511 24.6325 53.0484C24.7226 53.0329 31.8963 51.9087 40.1362 47.2201C40.1735 47.1992 40.2131 47.186 40.2551 47.1813C40.2978 47.1767 40.3389 47.1798 40.3801 47.1922C40.4205 47.2038 40.4578 47.2232 40.4904 47.2504C40.5238 47.2768 40.5502 47.3093 40.5696 47.3466ZM55.6027 46.061C55.0466 49.7611 57.5233 56.3512 61.491 61.7311C61.5159 61.7644 61.533 61.8017 61.543 61.842C61.5531 61.8824 61.5547 61.9227 61.5493 61.9638C61.543 62.0049 61.5291 62.043 61.5073 62.0786C61.4864 62.1143 61.4584 62.1438 61.425 62.1686C61.3916 62.1935 61.3551 62.2105 61.3147 62.2199C61.2743 62.2299 61.234 62.2323 61.1928 62.2261C61.1516 62.2199 61.1136 62.2059 61.0779 62.1849C61.0421 62.1632 61.0126 62.1361 60.987 62.1035C56.8639 56.5149 54.3942 49.879 54.9829 45.9663C55.1732 44.6978 56.2201 42.3516 57.232 40.083C57.9325 38.515 58.6556 36.8942 59.0431 35.7397C59.0416 35.7312 59.0416 35.7219 59.0431 35.7133C59.1021 35.5799 59.1588 35.4441 59.2155 35.3083H54.4509C54.4595 35.3805 54.4447 35.4464 54.4075 35.5077C54.0184 36.1563 53.5765 36.7654 53.0802 37.3364C52.9684 37.7732 52.3378 40.0108 50.9468 40.7153C50.668 40.8604 50.3706 40.9333 50.056 40.9341C49.74 40.9294 49.4378 40.8635 49.1497 40.7347C47.9141 40.2056 48.0392 38.9347 48.2737 38.3288C48.2908 38.2931 48.3141 38.262 48.3436 38.2349C48.3723 38.2077 48.4057 38.1868 48.443 38.172C48.4803 38.1581 48.5183 38.1511 48.5587 38.1511C48.5983 38.1511 48.6371 38.1581 48.6737 38.1728C48.7109 38.1875 48.7443 38.2085 48.7731 38.2356C48.8026 38.2636 48.8251 38.2946 48.8422 38.3311C48.8593 38.3668 48.8694 38.4048 48.8725 38.4444C48.8748 38.4839 48.8701 38.5227 48.8585 38.5607C48.8119 38.6787 48.4313 39.7354 49.3928 40.1489C49.5916 40.2482 49.8029 40.2979 50.025 40.2979C50.2479 40.2979 50.4591 40.2482 50.6579 40.1489C51.9153 39.5127 52.476 37.1394 52.4822 37.1153C52.4931 37.0672 52.514 37.0245 52.5459 36.9865C53.0056 36.4589 53.4196 35.8972 53.7877 35.3021H48.8119C48.7847 35.3029 48.7575 35.299 48.7311 35.2913C48.2442 35.1469 47.786 34.939 47.3557 34.669C46.9263 34.3982 46.5403 34.0755 46.2001 33.6992C46.1403 33.762 46.0673 33.7946 45.9811 33.7977H44.6228C43.6862 35.3634 42.5671 36.4217 41.2662 36.4217H41.1831C40.7451 36.6824 38.7741 37.8128 36.8977 37.8128C36.7642 37.8128 36.6282 37.8128 36.4947 37.7934C36.1599 37.9478 35.8081 38.0277 35.4392 38.0339C35.3655 38.0339 35.2925 38.0293 35.2202 38.0184L15.1088 36.9384C15.1314 36.9532 15.1508 36.971 15.1686 36.9904C15.915 37.9726 18.0981 38.0386 18.8778 37.9788C18.9252 37.975 18.9718 37.9819 19.016 37.999C19.0611 38.0161 19.0999 38.0425 19.1325 38.0774C19.1651 38.1123 19.1884 38.1526 19.2024 38.1984C19.2164 38.2442 19.2203 38.2907 19.2125 38.3381C19.1232 38.9502 18.9935 40.7153 19.4059 41.509C19.4245 41.5462 19.4362 41.585 19.4401 41.6269C19.4439 41.6681 19.4401 41.7084 19.4276 41.7488C19.4152 41.7883 19.3958 41.824 19.3694 41.8558C19.343 41.8884 19.3111 41.914 19.2739 41.9334C19.2288 41.959 19.1799 41.9714 19.1271 41.9706C19.0696 41.9706 19.0152 41.9551 18.9655 41.9256C18.9158 41.8962 18.877 41.8558 18.849 41.8046C18.3831 40.9294 18.4724 39.342 18.5446 38.6197C17.6694 38.6352 15.5515 38.5367 14.6669 37.369C14.6421 37.3357 14.6242 37.2992 14.6141 37.2588C14.6033 37.2193 14.6009 37.1789 14.6071 37.1378C14.6126 37.0967 14.6258 37.0579 14.6467 37.0222C14.6677 36.9865 14.6949 36.9563 14.7283 36.9314C14.7283 36.9314 14.7438 36.9314 14.75 36.9206L10.9073 36.7126C10.8017 36.7126 8.23729 36.6405 7.98566 35.0329C5.66046 34.4797 5.47174 31.9007 5.46086 31.6711C4.95994 26.8514 4.86753 22.024 5.18283 17.1881C5.24885 15.4734 6.76637 14.9156 7.31155 14.8504L7.63075 14.793C7.89169 14.4283 8.7716 13.4616 10.9687 13.1396C11.0409 13.1396 15.4878 12.536 22.211 12.2171C26.2922 6.108 35.0408 2.74232 41.1482 3.01542C49.3509 3.38551 56.356 7.38973 59.9339 13.7324L60.8425 13.6517C60.8045 13.4104 60.8115 13.1707 60.8627 12.9325C60.9148 12.6935 61.008 12.4732 61.1431 12.2691C61.4273 11.8952 61.8723 11.6989 62.4564 11.6833H62.52C64.5874 11.6833 64.7474 14.3624 64.8654 16.3245C65.1109 20.3924 65.0208 23.6231 64.5936 26.1989C63.9871 29.8781 62.9953 32.651 60.0372 34.9475C59.9036 35.2866 59.7654 35.6233 59.6209 35.9515C59.2248 37.1347 58.5259 38.6919 57.7943 40.339C56.8095 42.5696 55.7797 44.8755 55.6027 46.061ZM61.6091 20.425L53.7652 21.252C53.5105 21.4103 53.234 21.4732 52.9358 21.4398L51.4027 21.4972C51.1759 23.1397 50.7954 24.7465 50.2611 26.3169C49.7267 27.8872 49.048 29.3932 48.2255 30.8339C48.4259 31.0931 48.6667 31.3072 48.9486 31.4756C49.2297 31.6432 49.5326 31.7541 49.8564 31.8069C50.7325 31.9931 53.5159 32.0257 55.5367 32.0257C55.525 31.9651 55.5312 31.9062 55.5545 31.8488C56.1875 30.2978 56.297 28.9331 55.8566 28.1045C55.7409 27.8849 55.5825 27.7026 55.3806 27.5567C55.1794 27.4116 54.9565 27.3185 54.7111 27.2774C51.8493 26.6652 51.1223 29.283 51.0936 29.3947C51.0851 29.4366 51.068 29.4754 51.0431 29.5103C51.0175 29.5452 50.9872 29.5739 50.9499 29.5964C50.9134 29.6189 50.8738 29.6337 50.8311 29.6399C50.7884 29.6461 50.7465 29.6438 50.7045 29.6321C50.6626 29.6213 50.6253 29.6026 50.5911 29.5763C50.557 29.5491 50.5298 29.5173 50.5096 29.4793C50.4886 29.442 50.4762 29.4017 50.4715 29.3582C50.4676 29.3156 50.4723 29.2737 50.4855 29.2326C50.4855 29.2 51.398 25.9282 54.8431 26.6629C55.0078 26.6939 55.167 26.7436 55.3208 26.8111C55.4745 26.8778 55.619 26.9616 55.7541 27.0617C55.8892 27.161 56.0112 27.2751 56.1207 27.4023C56.2302 27.5295 56.3234 27.6669 56.4018 27.8158C56.9322 28.8128 56.8398 30.3087 56.1502 32.0303C56.9276 32.0303 57.5124 32.0303 57.698 32.0303C57.9916 31.8945 59.6691 31.0108 61.0988 28.0626C61.1804 27.5815 61.7885 23.4547 61.6091 20.425ZM52.9264 20.8121H52.9598C53.3101 20.83 53.4149 20.7493 53.4258 20.7268V16.9235C47.9669 13.8984 41.6491 13.0613 38.7259 12.8425C39.0366 13.1016 39.289 13.4073 39.4847 13.7611C39.6796 14.1149 39.8039 14.492 39.8582 14.8915C40.544 20.013 40.5968 25.1414 40.0182 30.2761C39.6283 33.6464 38.7655 35.9624 37.4538 37.1696C39.1771 36.9508 40.916 35.8732 40.9354 35.8576H40.9595C43.1231 34.7288 43.3685 31.2188 43.3685 31.1838L43.8066 23.8287C43.857 21.1799 46.3484 21.0682 46.3725 21.0682L52.9264 20.8121ZM62.9169 19.0362L62.5946 14.1545L50.9429 15.0296C51.9588 15.4502 52.9451 15.9296 53.9034 16.4689C53.9531 16.4968 53.992 16.5348 54.0207 16.5837C54.0494 16.6326 54.0634 16.6853 54.0634 16.742V20.5918L61.8786 19.767C62.9169 19.6072 62.9169 19.0432 62.9169 19.0362ZM41.1195 3.64309C40.7451 3.62835 40.3599 3.6237 39.9677 3.64309C37.8017 4.06982 32.9711 5.70999 28.4124 12.0418C30.7663 12.0139 33.2709 12.0418 35.8571 12.1209C35.9122 12.1209 35.9689 12.1209 36.0302 12.1357C36.33 12.1101 36.629 12.1147 36.928 12.1489C36.9661 12.1341 37.0057 12.1264 37.0461 12.1271C41.3423 12.28 45.5159 13.0729 49.5675 14.5067L59.2272 13.7805C55.723 7.77455 48.9921 3.99766 41.1195 3.64309ZM23.0009 12.1861C24.5689 12.1186 26.2534 12.0682 28.0248 12.0418C31.2346 7.50766 34.5764 5.34068 36.8364 4.31266C37.3334 4.09387 37.7978 3.90766 38.2265 3.7618C32.8135 4.42671 26.4258 7.39205 23.0009 12.1861ZM8.72578 14.6114C10.6114 14.312 14.1458 13.8092 17.9233 13.5904C22.8347 13.3041 30.0541 13.1528 30.4883 13.1528C30.736 13.1334 30.983 13.1381 31.2299 13.1691C31.4769 13.1994 31.7177 13.2545 31.953 13.3336C32.1883 13.4135 32.4135 13.5159 32.6286 13.6408C32.843 13.7665 33.0426 13.9124 33.2274 14.0784C35.0144 15.5852 35.9207 18.625 35.9207 23.1133C35.9207 28.0346 35.3802 31.6734 34.3178 33.9351C33.865 34.8971 33.4029 35.4092 33.0612 35.6846L35.4959 35.8033C36.5141 34.8607 37.1626 32.0714 37.3288 31.0504C38.6669 22.8045 37.5765 14.5633 37.5656 14.4827C37.401 13.1288 36.4178 12.8293 36.0194 12.7633C35.9976 12.7657 35.9759 12.7657 35.9534 12.7633H35.8555C27.5643 12.4724 19.2987 12.8045 11.058 13.7611C10.2122 13.8581 9.43484 14.142 8.72578 14.6114ZM8.72578 34.5146L11.1038 32.3717C11.1659 32.3151 11.2389 32.2879 11.3228 32.2902L23.5507 32.5657C23.5934 32.568 23.6346 32.5773 23.6734 32.5944C25.4402 33.4106 27.1472 34.3362 28.7952 35.3696H32.3995C32.6776 35.2432 35.2839 33.7775 35.2839 23.1219C35.2839 17.7746 33.9411 15.5177 32.8158 14.568C31.6905 13.6191 30.5714 13.7852 30.5605 13.7875H30.5147C30.4401 13.7875 22.9815 13.9295 17.9536 14.2251C14.4169 14.4415 10.9027 14.8558 7.41174 15.4672H7.38999C7.37679 15.4672 5.86859 15.686 5.81112 17.2168C5.50047 22.0248 5.596 26.8251 6.09847 31.6168C6.1008 31.6284 6.1008 31.6401 6.09847 31.6517C6.09847 31.7549 6.19011 34.3788 8.72578 34.5216V34.5146ZM23.4699 33.2026L11.4261 32.9288L9.60181 34.5627L27.7095 35.427C25.8697 34.3176 23.8357 33.3687 23.4614 33.2003L23.4699 33.2026ZM36.2974 37.2092C36.452 37.1324 36.598 37.0424 36.7354 36.9384C37.6643 36.2425 38.875 34.5107 39.3744 30.2016C39.946 25.1259 39.8939 20.0572 39.2191 14.9947C39 13.7083 38.2359 13.1443 37.5237 12.9061C37.7101 13.1148 37.8592 13.3468 37.9718 13.6028C38.0836 13.8589 38.1535 14.1258 38.1807 14.4043C38.1807 14.4827 39.2928 22.8139 37.9423 31.1528C37.9136 31.3173 37.2674 35.1842 35.7942 36.3697C35.7359 36.4155 35.6707 36.4388 35.5969 36.4395H35.5814L8.8182 35.1508H8.66055C9.05429 36.026 10.8941 36.0958 10.9159 36.0958L35.2575 37.4086H35.2987C35.6489 37.4396 35.979 37.3729 36.2889 37.2069L36.2974 37.2092ZM47.7697 21.6307L46.3904 21.6788C46.3112 21.6788 44.4698 21.7789 44.4302 23.8349L43.9813 31.2141C43.9813 31.3413 43.8066 33.7993 42.449 35.4247C45.2495 33.5153 47.1655 25.309 47.7611 21.6283L47.7697 21.6307ZM45.8273 33.1825C49.6157 28.6251 50.5725 22.9752 50.7635 21.5251L48.4026 21.6105C48.2644 22.4678 47.1476 29.0797 44.9715 33.1825H45.8273ZM48.8585 34.6876H59.3584C62.3935 32.4694 63.3805 29.7555 63.9855 26.1027C64.4033 23.5726 64.4888 20.3877 64.248 16.368C64.1144 14.1521 63.8908 12.3172 62.5247 12.3172H62.4851C62.3267 12.3056 62.1737 12.3289 62.0269 12.3886C61.8793 12.4476 61.7527 12.536 61.6463 12.6539C61.5594 12.7975 61.5003 12.9511 61.4708 13.1164C61.4405 13.2808 61.4421 13.4453 61.4732 13.6098L62.8532 13.5051C62.9402 13.4989 63.0171 13.5237 63.0831 13.5819C63.1491 13.6401 63.1848 13.713 63.1903 13.8007L63.5452 19.0059C63.5452 19.054 63.5801 20.0184 62.2311 20.3396C62.4369 23.6207 61.752 28.0145 61.7209 28.2138C61.7162 28.2433 61.7077 28.272 61.6945 28.2992C60.017 31.7983 57.9721 32.6122 57.8821 32.6448C57.8479 32.6564 57.8129 32.6634 57.7772 32.6642C57.6832 32.6642 56.8398 32.6751 55.723 32.6751C53.6666 32.6751 50.6867 32.6378 49.7205 32.4345C49.3664 32.3694 49.0309 32.2499 48.7148 32.0761C48.3995 31.9023 48.1191 31.6827 47.8753 31.4174C47.4839 32.0427 47.0606 32.6448 46.6047 33.2244C46.9053 33.5673 47.247 33.8621 47.6299 34.1096C48.0127 34.3571 48.422 34.5472 48.8585 34.6807V34.6876Z" fill="url(#paint0_linear_9_191)"/>
<defs>
<linearGradient id="paint0_linear_9_191" x1="5" y1="35" x2="65" y2="35" gradientUnits="userSpaceOnUse">
<stop stop-color="#0CBAF1"/>
<stop offset="1" stop-color="#E95CE9"/>
</linearGradient>
</defs>
</svg>

<svg xmlns="http://www.w3.org/2000/svg" width="70" height="70" fill="none" viewBox="0 0 70 70"><path fill="url(#a)" d="M40.57 47.347a.3.3 0 0 1 .034.243.32.32 0 0 1-.152.194 55 55 0 0 1-9.445 4.239c1.533 1.717.957 9.936.468 14.695a.3.3 0 0 1-.101.202.32.32 0 0 1-.212.08h-.03a.318.318 0 0 1-.29-.354c1.338-13.06-.284-14.217-.398-14.289a.3.3 0 0 1-.186-.094 39 39 0 0 1-5.514 1.413q-.693.15-1.404.154c-1.55 0-2.942-.571-3.744-1.597-.753-.963-1.343-2.723.037-5.687-.545-.437-1.784-1.73-.812-3.748a.3.3 0 0 1 .117-.13.3.3 0 0 1 .167-.048h5.212q.06.006.113.031a.31.31 0 0 1 .176.283.313.313 0 0 1-.289.313h-5.001a2.3 2.3 0 0 0-.202 1.223 2.3 2.3 0 0 0 1.078 1.707.3.3 0 0 1 .14.18.33.33 0 0 1-.02.229c-1.095 2.224-1.17 4.042-.219 5.249.892 1.139 2.674 1.616 4.54 1.213.09-.015 7.263-1.14 15.503-5.828a.31.31 0 0 1 .354.03q.05.041.08.097m15.033-1.286c-.556 3.7 1.92 10.29 5.888 15.67q.037.05.052.111.015.06.006.122a.3.3 0 0 1-.124.205.31.31 0 0 1-.347.016.3.3 0 0 1-.091-.082c-4.123-5.588-6.593-12.224-6.004-16.137.19-1.268 1.237-3.614 2.249-5.883.7-1.568 1.424-3.189 1.811-4.343a.1.1 0 0 1 0-.027q.089-.2.172-.405h-4.764a.3.3 0 0 1-.044.2q-.582.972-1.327 1.828c-.112.437-.742 2.675-2.133 3.38a1.9 1.9 0 0 1-.891.218 2.3 2.3 0 0 1-.906-.2c-1.236-.528-1.11-1.8-.876-2.405a.3.3 0 0 1 .07-.094.31.31 0 0 1 .33-.062.3.3 0 0 1 .168.158.32.32 0 0 1 .017.23c-.047.118-.428 1.174.534 1.588q.299.15.632.149.334 0 .633-.15c1.257-.635 1.818-3.009 1.824-3.033a.3.3 0 0 1 .064-.129q.69-.791 1.242-1.684h-4.976a.3.3 0 0 1-.08-.01 5.54 5.54 0 0 1-2.532-1.593.3.3 0 0 1-.219.099h-1.358c-.937 1.565-2.056 2.624-3.357 2.624h-.083c-.438.26-2.409 1.39-4.285 1.39-.134 0-.27 0-.403-.019a2.6 2.6 0 0 1-1.056.24q-.111 0-.219-.015l-20.111-1.08a.3.3 0 0 1 .06.052c.746.983 2.93 1.049 3.709.989a.31.31 0 0 1 .324.22.3.3 0 0 1 .01.14c-.089.611-.218 2.376.194 3.17a.33.33 0 0 1 .022.24.31.31 0 0 1-.154.184.313.313 0 0 1-.308-.008.3.3 0 0 1-.117-.12c-.466-.876-.377-2.463-.304-3.185-.876.015-2.994-.083-3.878-1.251a.3.3 0 0 1-.06-.231.3.3 0 0 1 .121-.207s.016 0 .022-.01l-3.843-.208c-.105 0-2.67-.072-2.921-1.68C5.66 34.48 5.472 31.9 5.46 31.67a86 86 0 0 1-.278-14.483c.066-1.715 1.583-2.272 2.129-2.338l.319-.057c.26-.365 1.14-1.331 3.338-1.653.072 0 4.519-.604 11.242-.923 4.081-6.109 12.83-9.475 18.937-9.202 8.203.37 15.208 4.375 18.786 10.717l.909-.08a1.95 1.95 0 0 1 .3-1.383c.284-.374.73-.57 1.313-.586h.064c2.067 0 2.227 2.68 2.345 4.642.246 4.067.156 7.298-.271 9.874-.607 3.68-1.599 6.452-4.557 8.748q-.2.51-.416 1.005c-.396 1.183-1.095 2.74-1.827 4.387-.984 2.23-2.014 4.537-2.191 5.722m6.006-25.636-7.844.827a1.26 1.26 0 0 1-.83.188l-1.532.057a26 26 0 0 1-3.178 9.337 2.58 2.58 0 0 0 1.631.973c.877.186 3.66.219 5.68.219a.3.3 0 0 1 .018-.177c.633-1.551.743-2.916.303-3.744a1.6 1.6 0 0 0-.476-.548 1.6 1.6 0 0 0-.67-.28c-2.862-.612-3.589 2.006-3.617 2.118a.3.3 0 0 1-.144.201.3.3 0 0 1-.245.036.31.31 0 0 1-.233-.274.3.3 0 0 1 .014-.125c0-.033.912-3.305 4.357-2.57a2.2 2.2 0 0 1 .911.399 2.2 2.2 0 0 1 .648.754c.53.997.438 2.493-.252 4.214h1.548c.294-.136 1.971-1.02 3.4-3.967.082-.482.69-4.608.511-7.638m-8.683.387h.034c.35.018.455-.063.466-.085v-3.803c-5.46-3.026-11.777-3.863-14.7-4.081q.465.388.759.918.292.531.373 1.13 1.029 7.683.16 15.385c-.39 3.37-1.252 5.686-2.564 6.894 1.723-.22 3.462-1.297 3.481-1.312h.024c2.164-1.13 2.41-4.64 2.41-4.674l.438-7.355c.05-2.65 2.541-2.76 2.566-2.76zm9.99-1.776-.321-4.882-11.652.876q1.523.63 2.96 1.439a.31.31 0 0 1 .16.273v3.85l7.816-.825c1.038-.16 1.038-.724 1.038-.73M41.12 3.643c-.375-.015-.76-.02-1.152 0-2.166.427-6.997 2.067-11.556 8.399 2.354-.028 4.859 0 7.445.079.055 0 .112 0 .173.015q.45-.039.898.013a.3.3 0 0 1 .118-.022q6.444.23 12.522 2.38l9.66-.726C55.722 7.775 48.991 3.998 41.12 3.643M23 12.186c1.569-.067 3.253-.118 5.025-.144 3.21-4.534 6.551-6.701 8.811-7.73.497-.218.962-.404 1.39-.55-5.413.665-11.8 3.63-15.225 8.424M8.727 14.611c1.885-.299 5.42-.802 9.197-1.02 4.912-.287 12.131-.438 12.565-.438a3.65 3.65 0 0 1 1.465.18q.352.12.676.308.322.188.598.437c1.787 1.507 2.694 4.547 2.694 9.035 0 4.922-.54 8.56-1.603 10.822-.453.962-.915 1.474-1.257 1.75l2.435.118c1.018-.942 1.667-3.732 1.833-4.753 1.338-8.245.248-16.487.237-16.567-.165-1.354-1.148-1.654-1.547-1.72a.3.3 0 0 1-.066 0h-.098q-12.435-.436-24.797.998a5.25 5.25 0 0 0-2.332.85m0 19.904 2.378-2.143a.3.3 0 0 1 .219-.082l12.228.276a.4.4 0 0 1 .122.028 46 46 0 0 1 5.122 2.776H32.4c.278-.127 2.884-1.592 2.884-12.248 0-5.347-1.343-7.604-2.468-8.554-1.126-.949-2.245-.783-2.256-.78h-.045c-.075 0-7.533.142-12.561.437q-5.305.324-10.542 1.242H7.39c-.013 0-1.521.219-1.579 1.75a85 85 0 0 0 .287 14.4.1.1 0 0 1 0 .035c0 .103.092 2.727 2.628 2.87zm14.744-1.312-12.044-.274-1.824 1.634 18.107.864c-1.84-1.11-3.873-2.058-4.248-2.227zm12.827 4.006q.233-.116.438-.27c.93-.697 2.14-2.428 2.64-6.737a62 62 0 0 0-.156-15.207c-.219-1.287-.983-1.85-1.695-2.089a2.63 2.63 0 0 1 .657 1.498c0 .079 1.112 8.41-.239 16.749-.028.164-.675 4.031-2.148 5.217a.3.3 0 0 1-.197.07h-.016L8.818 35.15h-.157c.393.876 2.233.946 2.255.946l24.342 1.313h.04q.526.046.99-.202zM47.77 21.631l-1.38.048c-.079 0-1.92.1-1.96 2.156l-.449 7.38c0 .126-.174 2.584-1.532 4.21 2.8-1.91 4.717-10.116 5.312-13.797zm-1.943 11.551c3.789-4.557 4.746-10.207 4.937-11.657l-2.361.085c-.139.858-1.255 7.47-3.431 11.572zm3.032 1.506h10.5c3.035-2.219 4.021-4.933 4.627-8.585.417-2.53.503-5.715.262-9.735-.134-2.216-.357-4.05-1.723-4.05h-.04a1 1 0 0 0-.458.07 1 1 0 0 0-.38.266 1.34 1.34 0 0 0-.174.956l1.38-.105a.3.3 0 0 1 .23.077.3.3 0 0 1 .107.219l.355 5.205c0 .048.035 1.012-1.314 1.334.206 3.28-.479 7.675-.51 7.874a.3.3 0 0 1-.026.085c-1.678 3.5-3.723 4.313-3.813 4.346a.4.4 0 0 1-.105.02c-.094 0-.937.01-2.054.01-2.056 0-5.036-.037-6.002-.24a3.32 3.32 0 0 1-1.846-1.018 21 21 0 0 1-1.27 1.807 4.9 4.9 0 0 0 2.254 1.457z" opacity=".86"/><defs><linearGradient id="a" x1="5" x2="65" y1="35" y2="35" gradientUnits="userSpaceOnUse"><stop stop-color="#0cbaf1"/><stop offset="1" stop-color="#e95ce9"/></linearGradient></defs></svg>
